svg/editor/asterisk_2_line.svg

<?xml version="1.0" encoding="UTF-8"?>
<svg width="24px" height="24px" viewBox="0 0 24 24" version="1.1" xmlns="http://www.w3.org/2000/svg" xmlns:xlink="http://www.w3.org/1999/xlink">
    <title>asterisk_2_line</title>
    <g id="Icon" stroke="none" stroke-width="1" fill="none" fill-rule="evenodd">
        <g id="Editor" transform="translate(-48.000000, -288.000000)" fill-rule="nonzero">
            <g id="asterisk_2_line" transform="translate(48.000000, 288.000000)">
                <path d="M24,0 L24,24 L0,24 L0,0 L24,0 Z M12.5935,23.2578 L12.5819,23.2595 L12.5109,23.295 L12.4919,23.2987 L12.4767,23.295 L12.4057,23.2595 C12.3958,23.2564 12.387,23.259 12.3821,23.2649 L12.378,23.2758 L12.3609,23.7031 L12.3659,23.7235 L12.3769,23.7357 L12.4805,23.8097 L12.4953,23.8136 L12.5071,23.8097 L12.6107,23.7357 L12.6233,23.7197 L12.6267,23.7031 L12.6096,23.2758 C12.6076,23.2657 12.601,23.2593 12.5935,23.2578 Z M12.8584,23.1453 L12.8445,23.1473 L12.6598,23.2397 L12.6499,23.2499 L12.6472,23.2611 L12.6651,23.6906 L12.6699,23.7034 L12.6784,23.7105 L12.8793,23.8032 C12.8914,23.8069 12.9022,23.803 12.9078,23.7952 L12.9118,23.7812 L12.8777,23.1665 C12.8753,23.1546 12.8674,23.147 12.8584,23.1453 Z M12.143,23.1473 C12.1332,23.1424 12.1222,23.1453 12.1156,23.1526 L12.1099,23.1665 L12.0758,23.7812 C12.0751,23.7927 12.0828,23.8019 12.0926,23.8046 L12.1083,23.8032 L12.3092,23.7105 L12.3186,23.7024 L12.3225,23.6906 L12.3404,23.2611 L12.3372,23.2485 L12.3278,23.2397 L12.143,23.1473 Z" id="MingCute"></path>
                <path d="M11.9998,3 C12.5521,3 12.9998,3.44772 12.9998,4 L12.9998,10.6236 L19.2992,8.57678 C19.8244,8.40611 20.3886,8.69356 20.5592,9.21881 C20.7299,9.74407 20.4425,10.3082 19.9172,10.4789 L13.6179,12.5257 L18.0988,18.6932 C18.4235,19.14 18.3244,19.7654 17.8776,20.09 C17.4308,20.4146 16.8054,20.3156 16.4808,19.8688 L11.9999,13.7013 L7.51876,19.869 C7.19413,20.3158 6.56877,20.4149 6.12196,20.0903 C5.67515,19.7656 5.5761,19.1403 5.90073,18.6935 L10.3817,12.5259 L4.08237,10.4791 C3.55711,10.3085 3.26966,9.74431 3.44033,9.21906 C3.61099,8.69381 4.17515,8.40635 4.7004,8.57702 L10.9998,10.6238 L10.9998,4 C10.9998,3.44772 11.4475,3 11.9998,3 Z" id="路径" fill="#09244B"></path>
            </g>
        </g>
    </g>
</svg>

<svg xmlns="http://www.w3.org/2000/svg" width="24" height="24"><g fill="none" fill-rule="nonzero"><path d="M24 0v24H0V0h24ZM12.594 23.258l-.012.002-.071.035-.02.004-.014-.004-.071-.036c-.01-.003-.019 0-.024.006l-.004.01-.017.428.005.02.01.013.104.074.015.004.012-.004.104-.074.012-.016.004-.017-.017-.427c-.002-.01-.009-.017-.016-.018Zm.264-.113-.014.002-.184.093-.01.01-.003.011.018.43.005.012.008.008.201.092c.012.004.023 0 .029-.008l.004-.014-.034-.614c-.003-.012-.01-.02-.02-.022Zm-.715.002a.023.023 0 0 0-.027.006l-.006.014-.034.614c0 .012.007.02.017.024l.015-.002.201-.093.01-.008.003-.011.018-.43-.003-.012-.01-.01-.184-.092Z"/><path fill="#09244B" d="M12 3a1 1 0 0 1 1 1v6.624l6.3-2.047a1 1 0 1 1 .617 1.902l-6.3 2.047 4.482 6.167a1 1 0 1 1-1.618 1.176L12 13.7 7.519 19.87A1 1 0 0 1 5.9 18.694l4.48-6.168-6.299-2.047A1 1 0 1 1 4.7 8.577l6.3 2.047V4a1 1 0 0 1 1-1Z"/></g></svg>
